X: 797
T: Gel Meclise Ey Gonce
C: Muallim İsmail Hakkı Bey
O: Turkey
F: http://compmusic.upf.edu/node/140
N: sehnaz--sarki--sofyan--gel_meclise--muallim_ismail_hakki_bey
N: makam= sehnaz
N: form= sarki
N: usul= sofyan = 4/4
M: 4/4
L: 1/16
K: C _7/8B ^1/4f ^c ^g
Q: 1/4=72
%%MIDI tuningsystem comma53
a/=g/a/=b/ag a3/2g/ab g2ga gfe2  | \
w:  ARANAĞME  | 
=g/^3/4f/g/a/gf g3/2f/ga f2fg =fed2  | 
w:   | 
=fed2 edc2 aga=b a2g2  | f3e d2c2 d^3/4faf d/e/f/e/f/g/a/=b/  | 
w:   |   | 
a/=g/a/=b/ag a3/2g/ab g2ga gfe2  | \
w:   | 
=g/^3/4f/g/a/g^1/4f g3/2f/ga f2fg =fed2  | 
w:   | 
e=fed cBc2 d^1/4fed cBA2  | e2dc cBBA A3A A2A2  | 
w:   |   | 
a/=g/a/=b/ag a3/2g/ab g2ga gfe2  | \
w:  ARANAĞME  | 
=g/^3/4f/g/a/gf g3/2f/ga f2fg =fed2  | 
w:   | 
=fed2 edc2 aga=b a2g2  | f3e d2c2 d^3/4faf d/e/f/e/f/g/a/=b/  | 
w:   |   | 
a/=g/a/=b/ag a3/2g/ab g2ga gfe2  | \
w:   | 
=g/^3/4f/g/a/g^1/4f g3/2f/ga f2fg =fed2  | 
w:   | 
e=fed cBc2 d^1/4fed cBA2  | e2dc cBBA A3A A2a2  | 
w:   |   | 
a4 a3/2=b/ab =c'2b2 {b}a2g2  | f3/2g/fe f2g2 a8  | \
w:  Gel  mec *  *  *  li se  *  ey   |  gon *  *  *  ca  i  gül  | 
=b3d' =c'2b2 a3/2b/ag f2g2  | 
w:  zâr_ *  ı  le tâ  | 
a6gf edcB A2z2  | a4 a3/2=b/ab =c'2b2 {b}a2g2  | \
w:  fet   SAZ  |  Gel  mec *  *  *  li se  *  ey   | 
f3/2g/fe f2g2 a8  | 
w:  gon *  *  *  ca  i  gül  | 
a3=c' =b2a2 g3/2a/gf gffe  | e6^3/4f=g agfg a2z2  | 
w:  zâr_ *  ı  le tâ  |  fet   SAZ  | 
a4 =b3/2=c'/ba a=gg^3/4f g4  | =g3/2^3/4f/g=b a2g2 fgfe d4  | 
w:  Öl dür *  *  *  me *  den  *  uş  |  şâ *  *  *  kı nı  bu   | 
e4 =f=gfe e3/2f/ed fedc  | d6a=g g^ff^e f2z2  | 
w:  nâr_ ı  *  ha *  râ  |  ret   SAZ  | 
^f4 =g3/2a/g^3/4f e2e2 =f3/2g/fe  | \
w:  Öl dür *  *  *  me den  uş  | 
d3/2c/d=f e2d2 cdcB c2z2  | 
w:  şâ *  *  *  kı nı  bu   | 
d3/2{e}c/d=f e2d2 c3B cBBA  | A4 z2ef edcd e2z2  | 
w:  nâr_ *  *  *  *  ı  ha râ  |  ret   SAZ  | 
e4 e4 f2fg e3/2f/ed  | d3/2e/dc c2d2 e3/2f/ed c=Bc2  | 
w:  Bül bül  gi bi  *  fer  |  yâd  *  *  *  e de rim   | 
d3/2e/d=f e2d2 {e}=c2=B2 A2G2  | A3=B =c2d2 edcd e2z2  | \
w:  ey  *  *  *  gül_ i  *  râ  |  nâ    | 
e4 e4 f2fg e4  | 
w:  Bül bül  gi bi  *  fer  | 
g3/2a/ge f2g2 a6z2  | a3=c' =b2a2 g3/2a/gf gffe  | \
w:  yâd  *  *  *  e de rim   |  ey  *  gül_ i  râ  | 
e6^3/4f=g agfg a4  | 
w:  nâ   SAZ  | 
a4 =b3/2=c'/ba a=gg^3/4f g4  | =g3/2^3/4f/g=b a2g2 fgfe d4  | 
w:  Öl dür *  *  *  me *  den  *  uş  |  şâ *  *  *  kı nı  bu   | 
e4 =f=gfe e3/2f/ed fedc  | d6a=g g^ff^e f2z2  | 
w:  nâr_ ı  *  ha *  râ  |  ret   SAZ  | 
^f4 =g3/2a/g^3/4f e2e2 =f3/2g/fe  | \
w:  Öl dür *  *  *  me den  uş  | 
d3/2c/d=f e2d2 cdcB c2z2  | 
w:  şâ *  *  *  kı nı  bu   | 
d3/2{e}c/d=f e2d2 c3B cBBA  | A4 z2e=f edcB A2z2  | 
w:  nâr_ *  *  *  *  ı  ha râ  |  fet   KARAR SAZ  | 
|


